X: 989
T: Allen's Bar
R: reel
M: 4/4
K: Amajor
|:(3cBA|A,3B, CEea|fccc ecBA|cAcf ecBA|A,AAA, AcBA|
A,3B, CEea|fccc ecBA|cAcf ecfd|1 ecBG A2:|2 ecdB A2 de||
|:f4 fece|fgfe cAce|f4 fefa|gage cdcA|
abaf gfec|defa ecBA|fAdf eafe|cAGE A4:|

